X: 17
T:Longford Tinker
R:Reel
Z:Added by Alf Warnock
M:4/4
L:1/8
K:D
|dBBA B3c|dBB2 fBeB|dBBA B2dB|ABde f3e|
dBB2 fBB2|dBB2 f2fg|aAA2 ABAF|ABde fgfe||
d2fd efge|defa g2fe|d2fd efge|fgaf g2fe|
d2fd efge|defa g2ga|bgaf gfed|faaf gfed||
faa2 faa2|faaf gfed|gbb2 gbb2|gbbf gfeg|
faa2 faa2|faaf g2ga|bgaf gfed|faaf gfef||
"Ending"|dBBA B3z|

